actions/128/tag-new.svg

<?xml version="1.0" encoding="UTF-8" standalone="no"?>
<svg
   xmlns:dc="http://purl.org/dc/elements/1.1/"
   xmlns:cc="http://creativecommons.org/ns#"
   xmlns:rdf="http://www.w3.org/1999/02/22-rdf-syntax-ns#"
   xmlns:svg="http://www.w3.org/2000/svg"
   xmlns="http://www.w3.org/2000/svg"
   xmlns:xlink="http://www.w3.org/1999/xlink"
   id="svg3342"
   height="128"
   width="128"
   version="1.1">
  <defs
     id="defs3344">
    <linearGradient
       gradientTransform="matrix(5.3333333,0,0,5.3333333,-5.333333,5.330407)"
       gradientUnits="userSpaceOnUse"
       xlink:href="#linearGradient3251"
       id="linearGradient2865"
       y2="-0.02451775"
       x2="17.591623"
       y1="7"
       x1="17.591623" />
    <linearGradient
       id="linearGradient3251">
      <stop
         offset="0"
         style="stop-color:#917f6e;stop-opacity:1"
         id="stop3253" />
      <stop
         offset="1"
         style="stop-color:#cbbaa9;stop-opacity:1"
         id="stop3255" />
    </linearGradient>
    <linearGradient
       gradientTransform="matrix(3.7348495,0,0,3.7348365,-68.919239,5.147402)"
       gradientUnits="userSpaceOnUse"
       xlink:href="#linearGradient4222"
       id="linearGradient2868"
       y2="7.0924568"
       x2="40.006763"
       y1="12.910877"
       x1="40.006763" />
    <linearGradient
       id="linearGradient4222">
      <stop
         offset="0"
         style="stop-color:#ffffff;stop-opacity:1"
         id="stop4224" />
      <stop
         offset="1"
         style="stop-color:#ffffff;stop-opacity:0"
         id="stop4226" />
    </linearGradient>
    <linearGradient
       gradientTransform="matrix(5.835569,0,0,5.8355808,-151.25687,-17.850163)"
       gradientUnits="userSpaceOnUse"
       xlink:href="#linearGradient4222"
       id="linearGradient2871"
       y2="22.697742"
       x2="38.382198"
       y1="5.90625"
       x1="38.382198" />
    <linearGradient
       gradientTransform="matrix(5.3333333,0,0,5.3333333,-132.83333,-10.833332)"
       gradientUnits="userSpaceOnUse"
       xlink:href="#linearGradient3243"
       id="linearGradient2874"
       y2="24.0341"
       x2="39.905758"
       y1="6.1230369"
       x1="39.905758" />
    <linearGradient
       id="linearGradient3243">
      <stop
         offset="0"
         style="stop-color:#fff4e9;stop-opacity:1"
         id="stop3245" />
      <stop
         offset="1"
         style="stop-color:#e7d6c5;stop-opacity:1"
         id="stop3247" />
    </linearGradient>
    <linearGradient
       gradientTransform="matrix(5.3333333,0,0,5.3333333,-132.83333,-10.833332)"
       gradientUnits="userSpaceOnUse"
       xlink:href="#linearGradient3251"
       id="linearGradient2876"
       y2="5"
       x2="32.015705"
       y1="24.011269"
       x1="32.015705" />
    <linearGradient
       id="linearGradient3283">
      <stop
         offset="0"
         style="stop-color:#000000;stop-opacity:1"
         id="stop3285" />
      <stop
         offset="1"
         style="stop-color:#000000;stop-opacity:0"
         id="stop3287" />
    </linearGradient>
    <radialGradient
       gradientTransform="matrix(5.2090906,0,0,1.7363636,-6.5454513,66.348348)"
       gradientUnits="userSpaceOnUse"
       xlink:href="#linearGradient3283"
       id="radialGradient3340"
       fy="20.146597"
       fx="10.471204"
       r="9.2146597"
       cy="20.146597"
       cx="10.471204" />
    <radialGradient
       gradientTransform="matrix(0,2.4235253,-2.6392787,0,226.36903,-84.88818)"
       gradientUnits="userSpaceOnUse"
       xlink:href="#linearGradient3242-7-3-8-0-4-58-06"
       id="radialGradient3381"
       fy="48.76759"
       fx="66.127159"
       r="31.000002"
       cy="48.76759"
       cx="66.127159" />
    <linearGradient
       id="linearGradient3242-7-3-8-0-4-58-06">
      <stop
         id="stop3244-5-8-5-6-4-3-8"
         style="stop-color:#cdf87e;stop-opacity:1"
         offset="0" />
      <stop
         id="stop3246-9-5-1-5-3-0-7"
         style="stop-color:#a2e34f;stop-opacity:1"
         offset="0.26238" />
      <stop
         id="stop3248-7-2-0-7-5-35-9"
         style="stop-color:#68b723;stop-opacity:1"
         offset="0.66093999" />
      <stop
         id="stop3250-8-2-8-5-6-40-4"
         style="stop-color:#1d7e0d;stop-opacity:1"
         offset="1" />
    </linearGradient>
    <linearGradient
       gradientTransform="matrix(2.1134672,0,0,1.645562,50.724212,61.899946)"
       gradientUnits="userSpaceOnUse"
       xlink:href="#linearGradient4361"
       id="linearGradient3030"
       y2="37.130203"
       x2="24.138529"
       y1="9.1762295"
       x1="24.138529" />
    <linearGradient
       id="linearGradient4361">
      <stop
         offset="0"
         style="stop-color:#ffffff;stop-opacity:1"
         id="stop4363" />
      <stop
         offset="0"
         style="stop-color:#ffffff;stop-opacity:0.23529412"
         id="stop4365" />
      <stop
         offset="1"
         style="stop-color:#ffffff;stop-opacity:0.15686275"
         id="stop4367" />
      <stop
         offset="1"
         style="stop-color:#ffffff;stop-opacity:0.39215687"
         id="stop4369" />
    </linearGradient>
    <linearGradient
       gradientTransform="matrix(1.6592445,0,0,2.0928522,60.832154,51.571789)"
       gradientUnits="userSpaceOnUse"
       xlink:href="#linearGradient4351"
       id="linearGradient3030-1"
       y2="26.484531"
       x2="24.138529"
       y1="19.795095"
       x1="24.138529" />
    <linearGradient
       id="linearGradient4351">
      <stop
         offset="0"
         style="stop-color:#ffffff;stop-opacity:1"
         id="stop4353" />
      <stop
         offset="0.00000015"
         style="stop-color:#ffffff;stop-opacity:0.23529412"
         id="stop4355" />
      <stop
         offset="1"
         style="stop-color:#ffffff;stop-opacity:0.15686275"
         id="stop4357" />
      <stop
         offset="1"
         style="stop-color:#ffffff;stop-opacity:0.39215687"
         id="stop4359" />
    </linearGradient>
  </defs>
  <metadata
     id="metadata3347">
    <rdf:RDF>
      <cc:Work
         rdf:about="">
        <dc:format>image/svg+xml</dc:format>
        <dc:type
           rdf:resource="http://purl.org/dc/dcmitype/StillImage" />
        <dc:title></dc:title>
      </cc:Work>
    </rdf:RDF>
  </metadata>
  <path
     d="m 95.999994,101.33017 a 47.999998,16 0 1 1 -95.99999329999998,0 47.999998,16 0 1 1 95.99999329999998,0 z"
     id="path3281"
     style="display:inline;overflow:visible;visibility:visible;opacity:0.3;fill:url(#radialGradient3340);fill-opacity:1;fill-rule:evenodd;stroke:none;stroke-width:1;marker:none;enable-background:accumulate" />
  <path
     d="M 59.166665,18.5 8.4999997,71 52.5,114.5 l 52,-50.666667 0,-45.333333 -45.333335,0 z m 21.333334,16 c 4.416,0 8,3.584 8,8 0,4.416 -3.584,8 -8,8 -4.416,0 -8,-3.584 -8,-8 0,-4.416 3.584,-8 8,-8 z"
     id="path2463"
     style="fill:url(#linearGradient2874);fill-opacity:1;fill-rule:evenodd;stroke:url(#linearGradient2876);stroke-width:1px;stroke-linecap:butt;stroke-linejoin:miter;stroke-opacity:1" />
  <path
     d="m 59.629672,19.5 c 0,0 -49.67726,51.47043 -49.67726,51.47043 0,0 42.53615,41.98714 42.53615,41.98714 0,0 51.011438,-49.664547 51.011438,-49.664547 0,0 0,-43.793023 0,-43.793023 0,0 -43.870328,0 -43.870328,0 z"
     id="path3265"
     style="opacity:0.6;fill:none;stroke:url(#linearGradient2871);stroke-width:0.99999994px;stroke-linecap:butt;stroke-linejoin:miter;stroke-opacity:1" />
  <path
     d="m 80.474738,33.508817 c 5.651902,-0.199253 10.312165,5.803162 8.703503,11.229981 -1.194552,5.325199 -7.751738,8.394113 -12.595882,5.856203 -4.986015,-2.20239 -6.72403,-9.214169 -3.30661,-13.472475 1.660116,-2.24646 4.402068,-3.635344 7.198989,-3.613709 z"
     id="path3294"
     style="opacity:0.6;fill:none;stroke:url(#linearGradient2868);stroke-width:0.99999994px;stroke-linecap:butt;stroke-linejoin:miter;stroke-opacity:1" />
  <path
     d="m 82.666666,39.997073 c 5.914763,-3.131834 13.621462,-4.091301 20.943314,-4.254607 3.29145,-0.07339 6.61837,0.5968 9.84816,-0.171414 4.11063,-0.97776 6.91191,-3.989402 6.50213,-6.742661 -0.55008,-3.695808 -5.51476,-6.424128 -10.17099,-8.376528 -4.13018,-1.731819 -7.30904,-4.817877 -8.98899,-8.077947 -0.848781,-1.647109 0.63352,-3.376591 3.01116,-3.90752 2.15998,-0.482325 4.4223,-0.672975 6.62024,-0.183232 3.34529,0.745396 7.2943,1.654775 8.85051,4.024854"
     id="path3298"
     style="fill:none;stroke:url(#linearGradient2865);stroke-width:0.99999994px;stroke-linecap:butt;stroke-linejoin:miter;stroke-opacity:1" />
  <g
     id="g4390">
    <path
       style="color:#000000;display:inline;overflow:visible;visibility:visible;fill:url(#radialGradient3381);fill-opacity:1;fill-rule:nonzero;stroke:none;stroke-width:0.98542738;stroke-linecap:round;stroke-linejoin:round;stroke-miterlimit:4;stroke-dasharray:none;stroke-dashoffset:0;stroke-opacity:1;marker:none;enable-background:accumulate"
       id="path2262"
       d="m 89.5,91.499992 0,-16.007287 17,0 0,16.007287 16.00729,0 0,17.000008 -16.00729,0 0,16.00729 -17,0 0,-16.00729 -16.007286,0 0,-17.000008 16.007286,0 z" />
    <path
       d="m 90.500004,93.012938 0,-16.512937 14.999996,0 0,16.487061 m 0,14.012938 0,16.5 -14.999996,0 0,-16.5"
       id="path2272-4"
       style="display:inline;opacity:0.5;fill:none;stroke:url(#linearGradient3030);stroke-width:1;stroke-linecap:butt;stroke-linejoin:miter;stroke-miterlimit:4;stroke-dasharray:none;stroke-opacity:1" />
    <path
       d="m 106,92.556134 15.5,-0.05434 0,14.943816 -15.5,0.0544 m -16,0 -15.5,-0.0544 0,-14.943816 15.5,0.05434"
       id="path2272-2"
       style="display:inline;opacity:0.5;fill:none;stroke:url(#linearGradient3030-1);stroke-width:1;stroke-linecap:butt;stroke-linejoin:miter;stroke-miterlimit:4;stroke-dasharray:none;stroke-opacity:1" />
    <path
       style="color:#000000;clip-rule:nonzero;display:inline;overflow:visible;visibility:visible;opacity:0.5;isolation:auto;mix-blend-mode:normal;color-interpolation:sRGB;color-interpolation-filters:linearRGB;solid-color:#000000;solid-opacity:1;fill:none;fill-opacity:1;fill-rule:nonzero;stroke:#0f5a00;stroke-width:1;stroke-linecap:round;stroke-linejoin:round;stroke-miterlimit:4;stroke-dasharray:none;stroke-dashoffset:0;stroke-opacity:1;marker:none;color-rendering:auto;image-rendering:auto;shape-rendering:auto;text-rendering:auto;enable-background:accumulate"
       id="path2262-8"
       d="m 89.5,91.499992 0,-16.007287 17,0 0,16.007287 16.00729,0 0,17.000008 -16.00729,0 0,16.00729 -17,0 0,-16.00729 -16.007286,0 0,-17.000008 16.007286,0 z" />
  </g>
</svg>

<svg xmlns="http://www.w3.org/2000/svg" xmlns:xlink="http://www.w3.org/1999/xlink" viewBox="0 0 128 128"><defs><linearGradient gradientTransform="translate(-5.333 5.33) scale(5.33333)" gradientUnits="userSpaceOnUse" xlink:href="#a" id="m" y2="-.025" x2="17.592" y1="7" x1="17.592"/><linearGradient id="a"><stop offset="0" stop-color="#917f6e"/><stop offset="1" stop-color="#cbbaa9"/></linearGradient><linearGradient gradientTransform="matrix(3.73485 0 0 3.73484 -68.92 5.147)" gradientUnits="userSpaceOnUse" xlink:href="#b" id="l" y2="7.092" x2="40.007" y1="12.911" x1="40.007"/><linearGradient id="b"><stop offset="0" stop-color="#fff"/><stop offset="1" stop-color="#fff" stop-opacity="0"/></linearGradient><linearGradient gradientTransform="matrix(5.83557 0 0 5.83558 -151.257 -17.85)" gradientUnits="userSpaceOnUse" xlink:href="#b" id="k" y2="22.698" x2="38.382" y1="5.906" x1="38.382"/><linearGradient gradientTransform="translate(-132.833 -10.833) scale(5.33333)" gradientUnits="userSpaceOnUse" xlink:href="#c" id="i" y2="24.034" x2="39.906" y1="6.123" x1="39.906"/><linearGradient id="c"><stop offset="0" stop-color="#fff4e9"/><stop offset="1" stop-color="#e7d6c5"/></linearGradient><linearGradient gradientTransform="translate(-132.833 -10.833) scale(5.33333)" gradientUnits="userSpaceOnUse" xlink:href="#a" id="j" y2="5" x2="32.016" y1="24.011" x1="32.016"/><linearGradient id="d"><stop offset="0"/><stop offset="1" stop-opacity="0"/></linearGradient><radialGradient gradientTransform="matrix(5.2091 0 0 1.73636 -6.545 66.348)" gradientUnits="userSpaceOnUse" xlink:href="#d" id="h" fy="20.147" fx="10.471" r="9.215" cy="20.147" cx="10.471"/><radialGradient gradientTransform="matrix(0 2.42353 -2.63928 0 226.37 -84.888)" gradientUnits="userSpaceOnUse" xlink:href="#e" id="n" fy="48.768" fx="66.127" r="31" cy="48.768" cx="66.127"/><linearGradient id="e"><stop offset="0" stop-color="#cdf87e"/><stop offset=".262" stop-color="#a2e34f"/><stop offset=".661" stop-color="#68b723"/><stop offset="1" stop-color="#1d7e0d"/></linearGradient><linearGradient gradientTransform="matrix(2.11347 0 0 1.64556 50.724 61.9)" gradientUnits="userSpaceOnUse" xlink:href="#f" id="o" y2="37.13" x2="24.139" y1="9.176" x1="24.139"/><linearGradient id="f"><stop offset="0" stop-color="#fff"/><stop offset="0" stop-color="#fff" stop-opacity=".235"/><stop offset="1" stop-color="#fff" stop-opacity=".157"/><stop offset="1" stop-color="#fff" stop-opacity=".392"/></linearGradient><linearGradient gradientTransform="matrix(1.65924 0 0 2.09285 60.832 51.572)" gradientUnits="userSpaceOnUse" xlink:href="#g" id="p" y2="26.485" x2="24.139" y1="19.795" x1="24.139"/><linearGradient id="g"><stop offset="0" stop-color="#fff"/><stop offset="0" stop-color="#fff" stop-opacity=".235"/><stop offset="1" stop-color="#fff" stop-opacity=".157"/><stop offset="1" stop-color="#fff" stop-opacity=".392"/></linearGradient></defs><path d="M96 101.33a48 16 0 1 1-96 0 48 16 0 1 1 96 0z" overflow="visible" opacity=".3" fill="url(#h)" fill-rule="evenodd"/><path d="M59.167 18.5L8.5 71l44 43.5 52-50.667V18.5H59.167zm21.333 16c4.416 0 8 3.584 8 8s-3.584 8-8 8-8-3.584-8-8 3.584-8 8-8z" fill="url(#i)" fill-rule="evenodd" stroke="url(#j)"/><path d="M59.63 19.5L9.952 70.97l42.537 41.988 51.01-49.665V19.5H59.63z" opacity=".6" fill="none" stroke="url(#k)"/><path d="M80.475 33.51c5.652-.2 10.312 5.802 8.703 11.23-1.194 5.324-7.75 8.393-12.596 5.855-4.986-2.202-6.724-9.214-3.306-13.472 1.66-2.247 4.402-3.636 7.2-3.614z" opacity=".6" fill="none" stroke="url(#l)"/><path d="M82.667 39.997c5.914-3.132 13.62-4.09 20.943-4.255 3.29-.073 6.618.597 9.848-.17 4.11-.98 6.912-3.99 6.502-6.744-.55-3.695-5.514-6.424-10.17-8.376-4.13-1.732-7.31-4.818-8.99-8.078-.848-1.647.634-3.377 3.01-3.908 2.16-.482 4.424-.673 6.622-.183 3.345.746 7.294 1.655 8.85 4.025" fill="none" stroke="url(#m)"/><path d="M89.5 91.5V75.493h17V91.5h16.007v17H106.5v16.007h-17V108.5H73.493v-17H89.5z" color="#000" overflow="visible" fill="url(#n)"/><path d="M90.5 93.013V76.5h15v16.487m0 14.013v16.5h-15V107" opacity=".5" fill="none" stroke="url(#o)"/><path d="M106 92.556l15.5-.054v14.944l-15.5.054m-16 0l-15.5-.054V92.502l15.5.054" opacity=".5" fill="none" stroke="url(#p)"/><path style="isolation:auto;mix-blend-mode:normal" d="M89.5 91.5V75.493h17V91.5h16.007v17H106.5v16.007h-17V108.5H73.493v-17H89.5z" color="#000" overflow="visible" opacity=".5" fill="none" stroke="#0f5a00" stroke-linecap="round" stroke-linejoin="round"/></svg>
